images/main-icon.svg

<svg fill="none" height="38" viewBox="0 0 38 38" width="38" xmlns="http://www.w3.org/2000/svg"><g fill="#fff"><path d="m30.3998 10.45c0-1.25983-.5004-2.46801-1.3912-3.35881-.8908-.89079-2.099-1.39124-3.3588-1.39124h-17.09999c-1.25978 0-2.46796.50045-3.35876 1.39124-.8908.8908-1.39125 2.09898-1.39125 3.35881v13.3c0 1.2597.50045 2.4679 1.39125 3.3587s2.09898 1.3913 3.35876 1.3913h17.09999c1.2598 0 2.468-.5005 3.3588-1.3913s1.3912-2.099 1.3912-3.3587zm-12.8174 8.4189 10.9174-5.643v10.5241c0 .7558-.3003 1.4807-.8347 2.0152-.5345.5345-1.2594.8348-2.0153.8348h-17.09999c-.75587 0-1.48078-.3003-2.01526-.8348s-.83475-1.2594-.83475-2.0152v-10.5203l10.9174 5.6392.1558.0722c.1319.0485.2729.0672.4128.0548.14-.0125.2754-.0559.3966-.127zm-9.03259-11.26895h17.09999c.7559 0 1.4808.30027 2.0153.83475.5344.53448.8347 1.25938.8347 2.0153v.5719l-11.4 5.9261-11.4-5.9242v-.5738c0-.75592.30027-1.48082.83475-2.0153s1.25939-.83475 2.01526-.83475z"/><path d="m12.3498 32.2999c-.7375.0006-1.465-.1708-2.1247-.5006-.65962-.3298-1.23326-.809-1.6753-1.3993h17.1c1.7637 0 3.4551-.7007 4.7023-1.9478 1.2471-1.2471 1.9477-2.9386 1.9477-4.7022v-13.3c1.1533.8664 1.9 2.2458 1.9 3.8v9.5c0 2.2676-.9008 4.4423-2.5042 6.0457-1.6035 1.6034-3.7782 2.5042-6.0458 2.5042z"/></g></svg>

<svg width="38" height="38" viewBox="0 0 38 38" fill="none" xmlns="http://www.w3.org/2000/svg">
<path d="M30.3998 10.45C30.3998 9.19017 29.8994 7.98199 29.0086 7.09119C28.1178 6.2004 26.9096 5.69995 25.6498 5.69995H8.54981C7.29003 5.69995 6.08185 6.2004 5.19105 7.09119C4.30025 7.98199 3.7998 9.19017 3.7998 10.45V23.75C3.7998 25.0097 4.30025 26.2179 5.19105 27.1087C6.08185 27.9995 7.29003 28.5 8.54981 28.5H25.6498C26.9096 28.5 28.1178 27.9995 29.0086 27.1087C29.8994 26.2179 30.3998 25.0097 30.3998 23.75V10.45ZM17.5824 18.8689L28.4998 13.2259V23.75C28.4998 24.5058 28.1995 25.2307 27.6651 25.7652C27.1306 26.2997 26.4057 26.6 25.6498 26.6H8.54981C7.79394 26.6 7.06903 26.2997 6.53455 25.7652C6.00007 25.2307 5.6998 24.5058 5.6998 23.75V13.2297L16.6172 18.8689L16.773 18.9411C16.9049 18.9896 17.0459 19.0083 17.1858 18.9959C17.3258 18.9834 17.4612 18.94 17.5824 18.8689ZM8.54981 7.59995H25.6498C26.4057 7.59995 27.1306 7.90022 27.6651 8.4347C28.1995 8.96918 28.4998 9.69408 28.4998 10.45V11.0219L17.0998 16.948L5.6998 11.0238V10.45C5.6998 9.69408 6.00007 8.96918 6.53455 8.4347C7.06903 7.90022 7.79394 7.59995 8.54981 7.59995Z" fill="white"/>
<path d="M12.3498 32.2999C11.6123 32.3005 10.8848 32.1291 10.2251 31.7993C9.56548 31.4695 8.99184 30.9903 8.5498 30.4H25.6498C27.4135 30.4 29.1049 29.6993 30.3521 28.4522C31.5992 27.2051 32.2998 25.5136 32.2998 23.75V10.45C33.4531 11.3164 34.1998 12.6958 34.1998 14.25V23.75C34.1998 26.0176 33.299 28.1923 31.6956 29.7957C30.0921 31.3991 27.9174 32.2999 25.6498 32.2999H12.3498Z" fill="white"/>
</svg>
